; <IceSL Jun 24 2017 14:29:21>
;FLAVOR:UltiGCode
;TIME:8023.2202148438
;MATERIAL:18998.588863107
;MATERIAL2:0
M107
; printer_name           : 	 ultimaker2
; nozzle_diameter_mm     : 	 0.4
; bed_size_x_mm          : 	 235
; bed_size_y_mm          : 	 225
; xy_mm_per_pixels       : 	 0.05
; z_layer_height_mm      : 	 0.2
; print_speed_mm_per_sec : 	 40
; first_layer_print_speed_mm_per_sec  : 	 10
; travel_speed_mm_per_sec: 	 120
; perimeter_print_speed_mm_per_sec   : 	 30
; brush0:print_perimeter       : 	 1
; brush0:extruder              : 	 0
; brush0:infill_percentage     : 	 20
; brush0:num_shells            : 	 0
; brush0:num_covers            : 	 0
; brush0:flow_muitplier        : 	 1
; brush0:speed_muitplier       : 	 1
; brush1:print_perimeter       : 	 1
; brush1:extruder              : 	 1
; brush1:infill_percentage     : 	 20
; brush1:num_shells            : 	 1
; brush1:num_covers            : 	 6
; brush1:flow_muitplier        : 	 1
; brush1:speed_muitplier       : 	 1
; brush2:print_perimeter       : 	 1
; brush2:extruder              : 	 2
; brush2:infill_percentage     : 	 20
; brush2:num_shells            : 	 1
; brush2:num_covers            : 	 6
; brush2:flow_muitplier        : 	 1
; brush2:speed_muitplier       : 	 1
; brush3:print_perimeter       : 	 1
; brush3:extruder              : 	 3
; brush3:infill_percentage     : 	 20
; brush3:num_shells            : 	 1
; brush3:num_covers            : 	 6
; brush3:flow_muitplier        : 	 1
; brush3:speed_muitplier       : 	 1
; bed_temp_degree_c     : 	 110
; filament_diameter_mm[0]: 	 2.85
; filament_priming_mm[0]: 	 1
; extruder_temp_degree_c[0]  : 	 230
; filament_diameter_mm[1]: 	 2.85
; filament_priming_mm[1]: 	 0
; extruder_temp_degree_c[1]  : 	 210
; process_thin_features : 	 off
;(<layer>)
G0 F600 Z0.300000
M104 S230.000 T0
G10
G0 F7200.000 X73.150 Y167.025
G11
G1 F600.000 X72.100 Y167.025 E0.151200
G1 F600.000 X73.150 Y165.275 E0.445080
G1 F600.000 X74.900 Y167.025 E0.801462
G1 F600.000 X77.700 Y167.025 E1.204661
G1 F600.000 X73.150 Y162.475 E2.131253
G1 F600.000 X73.150 Y159.675 E2.534453
G1 F600.000 X80.500 Y167.025 E4.031255
G1 F600.000 X83.300 Y167.025 E4.434455
G1 F600.000 X73.150 Y156.875 E6.501468
G1 F600.000 X73.150 Y154.075 E6.904667
G1 F600.000 X86.100 Y167.025 E9.541890
G1 F600.000 X88.900 Y167.025 E9.945089
G1 F600.000 X73.150 Y151.275 E13.152523
G1 F600.000 X73.150 Y148.475 E13.555721
G1 F600.000 X91.700 Y167.025 E17.333366
G1 F600.000 X94.500 Y167.025 E17.736567
G1 F600.000 X73.150 Y145.675 E22.084421
G1 F600.000 X73.150 Y142.875 E22.487623
G1 F600.000 X97.300 Y167.025 E27.405689
G1 F600.000 X100.100 Y167.025 E27.808887
G1 F600.000 X73.150 Y140.075 E33.297165
G1 F600.000 X73.150 Y137.275 E33.700363
G1 F600.000 X102.900 Y167.025 E39.758846
G1 F600.000 X105.700 Y167.025 E40.162048
G1 F600.000 X73.150 Y134.475 E46.790745
G1 F600.000 X73.150 Y131.675 E47.193943
G1 F600.000 X108.500 Y167.025 E54.392853
G1 F600.000 X111.300 Y167.025 E54.796055
G1 F600.000 X73.150 Y128.875 E62.565174
G1 F600.000 X73.150 Y126.075 E62.968376
G1 F600.000 X114.100 Y167.025 E71.307709
G1 F600.000 X116.900 Y167.025 E71.710907
G1 F600.000 X73.150 Y123.275 E80.620453
G1 F600.000 X73.150 Y120.475 E81.023651
G1 F600.000 X119.700 Y167.025 E90.503403
G1 F600.000 X122.500 Y167.025 E90.906601
G1 F600.000 X73.150 Y117.675 E100.956566
G1 F600.000 X73.150 Y114.875 E101.359764
G1 F600.000 X125.300 Y167.025 E111.979935
G1 F600.000 X128.100 Y167.025 E112.383141
G1 F600.000 X73.150 Y112.075 E123.573524
G1 F600.000 X73.150 Y109.275 E123.976730
G1 F600.000 X130.900 Y167.025 E135.737320
G1 F600.000 X133.700 Y167.025 E136.140518
G1 F600.000 X73.150 Y106.475 E148.471329
G1 F600.000 X73.150 Y103.675 E148.874527
G1 F600.000 X136.500 Y167.025 E161.775543
G1 F600.000 X139.300 Y167.025 E162.178741
G1 F600.000 X73.150 Y100.875 E175.649963
G1 F600.000 X73.150 Y98.075 E176.053162
G1 F600.000 X142.100 Y167.025 E190.094604
G1 F600.000 X144.900 Y167.025 E190.497803
G1 F600.000 X73.150 Y95.275 E205.109451
G1 F600.000 X73.150 Y92.475 E205.512634
G1 F600.000 X147.700 Y167.025 E220.694489
G1 F600.000 X150.500 Y167.025 E221.097687
G1 F600.000 X73.150 Y89.675 E236.849747
G1 F600.000 X73.150 Y86.875 E237.252945
G1 F600.000 X153.300 Y167.025 E253.575211
G1 F600.000 X156.100 Y167.025 E253.978394
G1 F600.000 X73.150 Y84.075 E270.870880
G1 F600.000 X73.150 Y81.275 E271.274048
G1 F600.000 X158.900 Y167.025 E288.736755
G1 F600.000 X161.700 Y167.025 E289.139954
G1 F600.000 X73.150 Y78.475 E307.172852
G1 F600.000 X73.150 Y75.675 E307.576050
G1 F600.000 X161.800 Y164.275 E325.624237
G1 F600.000 X161.800 Y161.475 E326.027435
G1 F600.000 X73.150 Y72.875 E344.075623
G1 F600.000 X73.150 Y70.075 E344.478790
G1 F600.000 X161.800 Y158.675 E362.526978
G1 F600.000 X161.800 Y155.875 E362.930176
G1 F600.000 X73.150 Y67.275 E380.978363
G1 F600.000 X73.150 Y64.475 E381.381561
G1 F600.000 X161.800 Y153.075 E399.429749
G1 F600.000 X161.800 Y150.275 E399.832947
G1 F600.000 X73.150 Y61.675 E417.881104
G1 F600.000 X73.150 Y58.925 E418.277100
G1 F600.000 X161.800 Y147.475 E436.320160
G1 F600.000 X161.800 Y144.675 E436.723358
G1 F600.000 X75.000 Y57.975 E454.389709
G1 F600.000 X77.800 Y57.975 E454.792908
G1 F600.000 X161.800 Y141.875 E471.889038
G1 F600.000 X161.800 Y139.075 E472.292236
G1 F600.000 X80.600 Y57.975 E488.818146
G1 F600.000 X83.400 Y57.975 E489.221344
G1 F600.000 X161.800 Y136.275 E505.177063
G1 F600.000 X161.800 Y133.475 E505.580261
G1 F600.000 X86.200 Y57.975 E520.965759
G1 F600.000 X89.000 Y57.975 E521.368958
G1 F600.000 X161.800 Y130.675 E536.184204
G1 F600.000 X161.800 Y127.875 E536.587402
G1 F600.000 X91.800 Y57.975 E550.832520
G1 F600.000 X94.600 Y57.975 E551.235657
G1 F600.000 X161.800 Y125.075 E564.910522
G1 F600.000 X161.800 Y122.275 E565.313721
G1 F600.000 X97.400 Y57.975 E578.418396
G1 F600.000 X100.200 Y57.975 E578.821594
G1 F600.000 X161.800 Y119.475 E591.356079
G1 F600.000 X161.800 Y116.675 E591.759277
G1 F600.000 X103.000 Y57.975 E603.723511
G1 F600.000 X105.800 Y57.975 E604.126709
G1 F600.000 X161.800 Y113.875 E615.520752
G1 F600.000 X161.800 Y111.075 E615.923889
G1 F600.000 X108.600 Y57.975 E626.747742
G1 F600.000 X111.400 Y57.975 E627.150940
G1 F600.000 X161.800 Y108.275 E637.404541
G1 F600.000 X161.800 Y105.475 E637.807739
G1 F600.000 X114.200 Y57.975 E647.491150
G1 F600.000 X117.000 Y57.975 E647.894348
G1 F600.000 X161.800 Y102.675 E657.007507
G1 F600.000 X161.800 Y99.875 E657.410706
G1 F600.000 X119.800 Y57.975 E665.953674
G1 F600.000 X122.600 Y57.975 E666.356812
G1 F600.000 X161.800 Y97.075 E674.329590
G1 F600.000 X161.800 Y94.275 E674.732788
G1 F600.000 X125.400 Y57.975 E682.135376
G1 F600.000 X128.200 Y57.975 E682.538574
G1 F600.000 X161.800 Y91.475 E689.370911
G1 F600.000 X161.800 Y88.675 E689.774109
G1 F600.000 X131.000 Y57.975 E696.036255
G1 F600.000 X133.800 Y57.975 E696.439453
G1 F600.000 X161.800 Y85.875 E702.131348
G1 F600.000 X161.800 Y83.075 E702.534546
G1 F600.000 X136.600 Y57.975 E707.656250
G1 F600.000 X139.400 Y57.975 E708.059448
G1 F600.000 X161.800 Y80.275 E712.610962
G1 F600.000 X161.800 Y77.475 E713.014160
G1 F600.000 X142.200 Y57.975 E716.995483
G1 F600.000 X145.000 Y57.975 E717.398682
G1 F600.000 X161.800 Y74.675 E720.809753
G1 F600.000 X161.800 Y71.875 E721.212952
G1 F600.000 X147.800 Y57.975 E724.053833
G1 F600.000 X150.600 Y57.975 E724.457031
G1 F600.000 X161.800 Y69.075 E726.727722
G1 F600.000 X161.800 Y66.275 E727.130920
G1 F600.000 X153.400 Y57.975 E728.831360
G1 F600.000 X156.200 Y57.975 E729.234558
G1 F600.000 X161.800 Y63.475 E730.364868
G1 F600.000 X161.800 Y60.675 E730.768066
G1 F600.000 X159.000 Y57.975 E731.328125
G1 F600.000 X161.800 Y57.975 E731.731323
;(</layer>)
;(<layer>)
M106 S255
G0 F100 Z0.600000
M104 S230.000 T0
G10
G0 F7200.000 X161.800 Y167.025
G11
G1 F1200.000 X162.850 Y167.025 E731.857361
G1 F1200.000 X161.800 Y165.275 E732.102234
G1 F1200.000 X160.050 Y167.025 E732.399231
G1 F1200.000 X157.250 Y167.025 E732.735291
G1 F1200.000 X161.800 Y162.475 E733.507446
G1 F1200.000 X161.800 Y159.675 E733.843445
G1 F1200.000 X154.450 Y167.025 E735.090820
G1 F1200.000 X151.650 Y167.025 E735.426819
G1 F1200.000 X161.800 Y156.875 E737.149353
G1 F1200.000 X161.800 Y154.075 E737.485291
G1 F1200.000 X148.850 Y167.025 E739.682983
G1 F1200.000 X146.050 Y167.025 E740.018982
G1 F1200.000 X161.800 Y151.275 E742.691833
G1 F1200.000 X161.800 Y148.475 E743.027771
G1 F1200.000 X143.250 Y167.025 E746.175842
G1 F1200.000 X140.450 Y167.025 E746.511780
G1 F1200.000 X161.800 Y145.675 E750.135010
G1 F1200.000 X161.800 Y142.875 E750.471069
G1 F1200.000 X137.650 Y167.025 E754.569397
G1 F1200.000 X134.850 Y167.025 E754.905457
G1 F1200.000 X161.800 Y140.075 E759.479004
G1 F1200.000 X161.800 Y137.275 E759.815002
G1 F1200.000 X132.050 Y167.025 E764.863770
G1 F1200.000 X129.250 Y167.025 E765.199768
G1 F1200.000 X161.800 Y134.475 E770.723694
G1 F1200.000 X161.800 Y131.675 E771.059692
G1 F1200.000 X126.450 Y167.025 E777.058777
G1 F1200.000 X123.650 Y167.025 E777.394775
G1 F1200.000 X161.800 Y128.875 E783.869080
G1 F1200.000 X161.800 Y126.075 E784.205017
G1 F1200.000 X120.850 Y167.025 E791.154480
G1 F1200.000 X118.050 Y167.025 E791.490479
G1 F1200.000 X161.800 Y123.275 E798.915100
G1 F1200.000 X161.800 Y120.475 E799.251099
G1 F1200.000 X115.250 Y167.025 E807.150879
G1 F1200.000 X112.450 Y167.025 E807.486877
G1 F1200.000 X161.800 Y117.675 E815.861816
G1 F1200.000 X161.800 Y114.875 E816.197876
G1 F1200.000 X109.650 Y167.025 E825.047974
G1 F1200.000 X106.850 Y167.025 E825.384033
G1 F1200.000 X161.800 Y112.075 E834.709351
G1 F1200.000 X161.800 Y109.275 E835.045349
G1 F1200.000 X104.050 Y167.025 E844.845825
G1 F1200.000 X101.250 Y167.025 E845.181885
G1 F1200.000 X161.800 Y106.475 E855.457581
G1 F1200.000 X161.800 Y103.675 E855.793579
G1 F1200.000 X98.450 Y167.025 E866.544373
G1 F1200.000 X95.650 Y167.025 E866.880432
G1 F1200.000 X161.800 Y100.875 E878.106445
G1 F1200.000 X161.800 Y98.075 E878.442505
G1 F1200.000 X92.850 Y167.025 E890.143616
G1 F1200.000 X90.050 Y167.025 E890.479675
G1 F1200.000 X161.800 Y95.275 E902.656067
G1 F1200.000 X161.800 Y92.475 E902.992065
G1 F1200.000 X87.250 Y167.025 E915.643616
G1 F1200.000 X84.450 Y167.025 E915.979614
G1 F1200.000 X161.800 Y89.675 E929.106323
G1 F1200.000 X161.800 Y86.875 E929.442383
G1 F1200.000 X81.650 Y167.025 E943.044250
G1 F1200.000 X78.850 Y167.025 E943.380249
G1 F1200.000 X161.800 Y84.075 E957.457336
G1 F1200.000 X161.800 Y81.275 E957.793335
G1 F1200.000 X76.050 Y167.025 E972.345581
G1 F1200.000 X73.250 Y167.025 E972.681580
G1 F1200.000 X161.800 Y78.475 E987.708984
G1 F1200.000 X161.800 Y75.675 E988.045044
G1 F1200.000 X73.150 Y164.275 E1003.085205
G1 F1200.000 X73.150 Y161.475 E1003.421265
G1 F1200.000 X161.800 Y72.875 E1018.461426
G1 F1200.000 X161.800 Y70.075 E1018.797424
G1 F1200.000 X73.150 Y158.675 E1033.837646
G1 F1200.000 X73.150 Y155.875 E1034.173706
G1 F1200.000 X161.800 Y67.275 E1049.213867
G1 F1200.000 X161.800 Y64.475 E1049.549805
G1 F1200.000 X73.150 Y153.075 E1064.590088
G1 F1200.000 X73.150 Y150.275 E1064.926025
G1 F1200.000 X161.800 Y61.675 E1079.966187
G1 F1200.000 X161.800 Y58.925 E1080.296265
G1 F1200.000 X73.150 Y147.475 E1095.332153
G1 F1200.000 X73.150 Y144.675 E1095.668091
G1 F1200.000 X159.950 Y57.975 E1110.390137
G1 F1200.000 X157.150 Y57.975 E1110.726196
G1 F1200.000 X73.150 Y141.875 E1124.972900
G1 F1200.000 X73.150 Y139.075 E1125.308960
G1 F1200.000 X154.350 Y57.975 E1139.080566
G1 F1200.000 X151.550 Y57.975 E1139.416504
G1 F1200.000 X73.150 Y136.275 E1152.713013
G1 F1200.000 X73.150 Y133.475 E1153.048950
G1 F1200.000 X148.750 Y57.975 E1165.870239
G1 F1200.000 X145.950 Y57.975 E1166.206299
G1 F1200.000 X73.150 Y130.675 E1178.552368
G1 F1200.000 X73.150 Y127.875 E1178.888306
G1 F1200.000 X143.150 Y57.975 E1190.759277
G1 F1200.000 X140.350 Y57.975 E1191.095337
G1 F1200.000 X73.150 Y125.075 E1202.490967
G1 F1200.000 X73.150 Y122.275 E1202.827026
G1 F1200.000 X137.550 Y57.975 E1213.747681
G1 F1200.000 X134.750 Y57.975 E1214.083618
G1 F1200.000 X73.150 Y119.475 E1224.529053
G1 F1200.000 X73.150 Y116.675 E1224.864990
G1 F1200.000 X131.950 Y57.975 E1234.835205
G1 F1200.000 X129.150 Y57.975 E1235.171265
G1 F1200.000 X73.150 Y113.875 E1244.666260
G1 F1200.000 X73.150 Y111.075 E1245.002319
G1 F1200.000 X126.350 Y57.975 E1254.022217
G1 F1200.000 X123.550 Y57.975 E1254.358276
G1 F1200.000 X73.150 Y108.275 E1262.902832
G1 F1200.000 X73.150 Y105.475 E1263.238892
G1 F1200.000 X120.750 Y57.975 E1271.308472
G1 F1200.000 X117.950 Y57.975 E1271.644409
G1 F1200.000 X73.150 Y102.675 E1279.238770
G1 F1200.000 X73.150 Y99.875 E1279.574829
G1 F1200.000 X115.150 Y57.975 E1286.693970
G1 F1200.000 X112.350 Y57.975 E1287.030029
G1 F1200.000 X73.150 Y97.075 E1293.673950
G1 F1200.000 X73.150 Y94.275 E1294.010010
G1 F1200.000 X109.550 Y57.975 E1300.178833
G1 F1200.000 X106.750 Y57.975 E1300.514893
G1 F1200.000 X73.150 Y91.475 E1306.208496
G1 F1200.000 X73.150 Y88.675 E1306.544556
G1 F1200.000 X103.950 Y57.975 E1311.763062
G1 F1200.000 X101.150 Y57.975 E1312.098999
G1 F1200.000 X73.150 Y85.875 E1316.842285
G1 F1200.000 X73.150 Y83.075 E1317.178345
G1 F1200.000 X98.350 Y57.975 E1321.446411
G1 F1200.000 X95.550 Y57.975 E1321.782471
G1 F1200.000 X73.150 Y80.275 E1325.575439
G1 F1200.000 X73.150 Y77.475 E1325.911377
G1 F1200.000 X92.750 Y57.975 E1329.229248
G1 F1200.000 X89.950 Y57.975 E1329.565308
G1 F1200.000 X73.150 Y74.675 E1332.407837
G1 F1200.000 X73.150 Y71.875 E1332.743896
G1 F1200.000 X87.150 Y57.975 E1335.111328
G1 F1200.000 X84.350 Y57.975 E1335.447388
G1 F1200.000 X73.150 Y69.075 E1337.339600
G1 F1200.000 X73.150 Y66.275 E1337.675537
G1 F1200.000 X81.550 Y57.975 E1339.092651
G1 F1200.000 X78.750 Y57.975 E1339.428711
G1 F1200.000 X73.150 Y63.475 E1340.370605
G1 F1200.000 X73.150 Y60.675 E1340.706665
G1 F1200.000 X75.950 Y57.975 E1341.173340
G1 F1200.000 X73.150 Y57.975 E1341.509399
;(</layer>)
;(<layer>)
G0 F100 Z0.900000
M104 S230.000 T0
G10
G0 F7200.000 X73.150 Y167.025
G11
G1 F1200.000 X72.100 Y167.025 E1341.635376
G1 F1200.000 X73.150 Y166.675 E1341.768066
G1 F1200.000 X73.500 Y167.025 E1341.827515
G1 F1200.000 X74.950 Y167.025 E1342.001587
G1 F1200.000 X73.150 Y165.225 E1342.307007
G1 F1200.000 X73.150 Y163.825 E1342.474976
G1 F1200.000 X76.350 Y167.025 E1343.018066
G1 F1200.000 X77.750 Y167.025 E1343.186157
G1 F1200.000 X73.150 Y162.425 E1343.966797
G1 F1200.000 X73.150 Y161.025 E1344.134766
G1 F1200.000 X79.150 Y167.025 E1345.152954
G1 F1200.000 X80.550 Y167.025 E1345.321045
G1 F1200.000 X73.150 Y159.625 E1346.576782
G1 F1200.000 X73.150 Y158.175 E1346.750854
G1 F1200.000 X82.000 Y167.025 E1348.252686
G1 F1200.000 X83.400 Y167.025 E1348.420776
G1 F1200.000 X73.150 Y156.775 E1350.160278
G1 F1200.000 X73.150 Y155.375 E1350.328247
G1 F1200.000 X84.800 Y167.025 E1352.305420
G1 F1200.000 X86.200 Y167.025 E1352.473389
G1 F1200.000 X73.150 Y153.975 E1354.687988
G1 F1200.000 X73.150 Y152.575 E1354.855957
G1 F1200.000 X87.600 Y167.025 E1357.308228
G1 F1200.000 X89.050 Y167.025 E1357.482300
G1 F1200.000 X73.150 Y151.125 E1360.180664
G1 F1200.000 X73.150 Y149.725 E1360.348633
G1 F1200.000 X90.450 Y167.025 E1363.284546
G1 F1200.000 X91.850 Y167.025 E1363.452515
G1 F1200.000 X73.150 Y148.325 E1366.626099
G1 F1200.000 X73.150 Y146.925 E1366.794067
G1 F1200.000 X93.250 Y167.025 E1370.205200
G1 F1200.000 X94.650 Y167.025 E1370.373169
G1 F1200.000 X73.150 Y145.525 E1374.021851
G1 F1200.000 X73.150 Y144.075 E1374.195923
G1 F1200.000 X96.100 Y167.025 E1378.090576
G1 F1200.000 X97.500 Y167.025 E1378.258667
G1 F1200.000 X73.150 Y142.675 E1382.390991
G1 F1200.000 X73.150 Y141.275 E1382.558960
G1 F1200.000 X98.900 Y167.025 E1386.928955
